www/img/register_doctor_off.svg

<svg data-name="Layer 1" xmlns="http://www.w3.org/2000/svg" viewBox="0 0 60 60"><path d="M30 1a29 29 0 1 0 29 29A29 29 0 0 0 30 1zm12.5 33.72h-7.78v7.78h-9.44v-7.78H17.5v-9.44h7.78V17.5h9.44v7.78h7.78z" fill="#6f9f2d"/></svg>

<svg id="Layer_1" data-name="Layer 1" xmlns="http://www.w3.org/2000/svg" viewBox="0 0 60 60"><defs><style>.cls-1{fill:#6f9f2d;}</style></defs><title>register_doctor_off</title><path class="cls-1" d="M30,1A29,29,0,1,0,59,30,29,29,0,0,0,30,1ZM42.5,34.72H34.72V42.5H25.28V34.72H17.5V25.28h7.78V17.5h9.44v7.78H42.5Z"/></svg>
